svg/emoji_u1f6a7.svg

<svg xmlns="http://www.w3.org/2000/svg" xmlns:xlink="http://www.w3.org/1999/xlink" viewBox="0 0 128 128" width="512px" height="512px"><path fill="#fcc21b" d="M104.22 128h13.61L99.9 68.55H86.29z"/><path fill="#fcc21b" d="M85.28 128H71.46l16.12-59.45h13.83zm-42.05 0h13.6L38.9 68.55H25.3z"/><path fill="#fcc21b" d="M24.29 128H10.46l16.12-59.45h13.83z"/><defs><path id="a" d="M124.54 73.09H3.45a3.27 3.27 0 0 1-3.26-3.27V26.03c0-1.8 1.46-3.27 3.26-3.27h121.09c1.81 0 3.27 1.46 3.27 3.27v43.79c0 1.8-1.46 3.27-3.27 3.27z"/></defs><use xlink:href="#a" overflow="visible" fill="#fcc21b"/><clipPath id="b"><use xlink:href="#a" overflow="visible"/></clipPath><g clip-path="url(#b)"><path fill="#2f2f2f" d="M-6.03 85.67l-10.58-7.96L39.52-.86 50.1 7.1zm33.45 0l-10.58-7.96L72.97-.86 83.56 7.1zm33.45 0l-10.58-7.96L106.42-.86 117 7.1zm33.44 0l-10.57-7.96L139.88-.86l10.58 7.96z"/></g><g fill="#2f2f2f"><path d="M31.65 13.66c0 5.43-4.4 9.83-9.83 9.83-5.42 0-9.82-4.4-9.82-9.83s4.4-9.82 9.82-9.82c5.43 0 9.83 4.4 9.83 9.82z"/><path d="M21.82 25.81c-6.69 0-12.13-5.45-12.13-12.15 0-6.69 5.44-12.14 12.13-12.14 6.7 0 12.15 5.44 12.15 12.14s-5.45 12.15-12.15 12.15zm0-19.65c-4.13 0-7.5 3.37-7.5 7.51s3.36 7.51 7.5 7.51c4.15 0 7.51-3.37 7.51-7.51s-3.37-7.51-7.51-7.51z"/></g><g fill="#2f2f2f"><path d="M18.59 3.84h3.22v19.65h-3.22z"/><path d="M21.82 25.85H18.6c-1.3 0-2.36-1.05-2.36-2.35V3.84c0-1.3 1.06-2.35 2.36-2.35h3.22c1.31 0 2.36 1.06 2.36 2.35v19.65c0 1.31-1.06 2.36-2.36 2.36z"/></g><path d="M28.58 13.66c0 5.43-4.41 9.83-9.83 9.83-5.43 0-9.83-4.4-9.83-9.83s4.39-9.82 9.83-9.82c5.43 0 9.83 4.4 9.83 9.82z" fill="#ed6c30"/><path d="M18.76 25.81c-6.7 0-12.14-5.45-12.14-12.15 0-6.69 5.45-12.14 12.14-12.14 6.7 0 12.15 5.44 12.15 12.14-.01 6.7-5.46 12.15-12.15 12.15zm0-19.65c-4.14 0-7.51 3.37-7.51 7.51s3.37 7.51 7.51 7.51c4.13 0 7.51-3.37 7.51-7.51s-3.38-7.51-7.51-7.51z" fill="#2f2f2f"/><g fill="#2f2f2f"><circle cx="110.8" cy="13.67" r="9.83"/><path d="M110.79 25.81c-6.7 0-12.14-5.45-12.14-12.15 0-6.69 5.44-12.14 12.14-12.14s12.14 5.44 12.14 12.14c.01 6.7-5.44 12.15-12.14 12.15zm0-19.65c-4.14 0-7.51 3.37-7.51 7.51s3.37 7.51 7.51 7.51 7.51-3.37 7.51-7.51-3.37-7.51-7.51-7.51z"/></g><g fill="#2f2f2f"><path d="M107.57 3.84h3.23v19.65h-3.23z"/><path d="M110.79 25.85h-3.23c-1.3 0-2.35-1.05-2.35-2.35V3.84c0-1.3 1.05-2.35 2.35-2.35h3.23c1.3 0 2.35 1.06 2.35 2.35v19.65a2.337 2.337 0 0 1-2.35 2.36z"/></g><ellipse cx="107.73" cy="13.67" rx="9.83" ry="9.83" fill="#ed6c30"/><path d="M107.73 25.81c-6.7 0-12.14-5.45-12.14-12.15 0-6.69 5.45-12.14 12.14-12.14 6.7 0 12.15 5.44 12.15 12.14-.01 6.7-5.45 12.15-12.15 12.15zm0-19.65c-4.14 0-7.51 3.37-7.51 7.51s3.37 7.51 7.51 7.51 7.51-3.37 7.51-7.51c-.01-4.14-3.37-7.51-7.51-7.51z" fill="#2f2f2f"/></svg>

<?xml version="1.0" encoding="utf-8"?>
<!-- Generator: Adobe Illustrator 19.2.1, SVG Export Plug-In . SVG Version: 6.00 Build 0)  -->
<svg version="1.1" id="レイヤー_1" xmlns="http://www.w3.org/2000/svg" xmlns:xlink="http://www.w3.org/1999/xlink" x="0px"
	 y="0px" viewBox="0 0 128 128" style="enable-background:new 0 0 128 128;" xml:space="preserve">
<g>
	<g>
		<g>
			<polygon style="fill:#FCC21B;" points="104.22,128 117.83,128 99.9,68.55 86.29,68.55 			"/>
		</g>
	</g>
	<g>
		<g>
			<polygon style="fill:#FCC21B;" points="85.28,128 71.46,128 87.58,68.55 101.41,68.55 			"/>
		</g>
	</g>
	<g>
		<g>
			<polygon style="fill:#FCC21B;" points="43.23,128 56.83,128 38.9,68.55 25.3,68.55 			"/>
		</g>
	</g>
	<g>
		<g>
			<polygon style="fill:#FCC21B;" points="24.29,128 10.46,128 26.58,68.55 40.41,68.55 			"/>
		</g>
	</g>
	<g>
		<defs>
			<path id="SVGID_1_" d="M124.54,73.09H3.45c-1.8,0-3.26-1.47-3.26-3.27V26.03c0-1.8,1.46-3.27,3.26-3.27h121.09
				c1.81,0,3.27,1.46,3.27,3.27v43.79C127.81,71.62,126.35,73.09,124.54,73.09z"/>
		</defs>
		<use xlink:href="#SVGID_1_"  style="overflow:visible;fill:#FCC21B;"/>
		<clipPath id="SVGID_2_">
			<use xlink:href="#SVGID_1_"  style="overflow:visible;"/>
		</clipPath>
		<g style="clip-path:url(#SVGID_2_);">
			<g>
				<g>
					<g>
						<g>
							<g>
								<polygon style="fill:#2F2F2F;" points="-6.03,85.67 -16.61,77.71 39.52,-0.86 50.1,7.1 								"/>
							</g>
							<g>
								<polygon style="fill:#2F2F2F;" points="27.42,85.67 16.84,77.71 72.97,-0.86 83.56,7.1 								"/>
							</g>
							<g>
								<polygon style="fill:#2F2F2F;" points="60.87,85.67 50.29,77.71 106.42,-0.86 117,7.1 								"/>
							</g>
							<g>
								<polygon style="fill:#2F2F2F;" points="94.31,85.67 83.74,77.71 139.88,-0.86 150.46,7.1 								"/>
							</g>
						</g>
					</g>
				</g>
			</g>
		</g>
	</g>
	<g>
		<g>
			<g>
				<path style="fill:#2F2F2F;" d="M31.65,13.66c0,5.43-4.4,9.83-9.83,9.83c-5.42,0-9.82-4.4-9.82-9.83c0-5.43,4.4-9.82,9.82-9.82
					C27.25,3.84,31.65,8.24,31.65,13.66z"/>
				<path style="fill:#2F2F2F;" d="M21.82,25.81c-6.69,0-12.13-5.45-12.13-12.15c0-6.69,5.44-12.14,12.13-12.14
					c6.7,0,12.15,5.44,12.15,12.14C33.97,20.36,28.52,25.81,21.82,25.81z M21.82,6.16c-4.13,0-7.5,3.37-7.5,7.51
					c0,4.14,3.36,7.51,7.5,7.51c4.15,0,7.51-3.37,7.51-7.51C29.33,9.53,25.96,6.16,21.82,6.16z"/>
			</g>
			<g>
				<rect x="18.59" y="3.84" style="fill:#2F2F2F;" width="3.22" height="19.65"/>
				<path style="fill:#2F2F2F;" d="M21.82,25.85h-3.22c-1.3,0-2.36-1.05-2.36-2.35V3.84c0-1.3,1.06-2.35,2.36-2.35h3.22
					c1.31,0,2.36,1.06,2.36,2.35v19.65C24.18,24.8,23.12,25.85,21.82,25.85z"/>
			</g>
			<g>
				<path style="fill:#ED6C30;" d="M28.58,13.66c0,5.43-4.41,9.83-9.83,9.83c-5.43,0-9.83-4.4-9.83-9.83c0-5.43,4.39-9.82,9.83-9.82
					C24.18,3.84,28.58,8.24,28.58,13.66z"/>
			</g>
			<g>
				<path style="fill:#2F2F2F;" d="M18.76,25.81c-6.7,0-12.14-5.45-12.14-12.15c0-6.69,5.45-12.14,12.14-12.14
					c6.7,0,12.15,5.44,12.15,12.14C30.9,20.36,25.45,25.81,18.76,25.81z M18.76,6.16c-4.14,0-7.51,3.37-7.51,7.51
					c0,4.14,3.37,7.51,7.51,7.51c4.13,0,7.51-3.37,7.51-7.51C26.27,9.53,22.89,6.16,18.76,6.16z"/>
			</g>
		</g>
		<g>
			<g>
				<circle style="fill:#2F2F2F;" cx="110.8" cy="13.67" r="9.83"/>
				<path style="fill:#2F2F2F;" d="M110.79,25.81c-6.7,0-12.14-5.45-12.14-12.15c0-6.69,5.44-12.14,12.14-12.14
					c6.7,0,12.14,5.44,12.14,12.14C122.94,20.36,117.49,25.81,110.79,25.81z M110.79,6.16c-4.14,0-7.51,3.37-7.51,7.51
					c0,4.14,3.37,7.51,7.51,7.51c4.14,0,7.51-3.37,7.51-7.51C118.3,9.53,114.93,6.16,110.79,6.16z"/>
			</g>
			<g>
				<rect x="107.57" y="3.84" style="fill:#2F2F2F;" width="3.23" height="19.65"/>
				<path style="fill:#2F2F2F;" d="M110.79,25.85h-3.23c-1.3,0-2.35-1.05-2.35-2.35V3.84c0-1.3,1.05-2.35,2.35-2.35h3.23
					c1.3,0,2.35,1.06,2.35,2.35v19.65C113.15,24.8,112.1,25.85,110.79,25.85z"/>
			</g>
			<g>
				<ellipse style="fill:#ED6C30;" cx="107.73" cy="13.67" rx="9.83" ry="9.83"/>
			</g>
			<g>
				<path style="fill:#2F2F2F;" d="M107.73,25.81c-6.7,0-12.14-5.45-12.14-12.15c0-6.69,5.45-12.14,12.14-12.14
					c6.7,0,12.15,5.44,12.15,12.14C119.87,20.36,114.43,25.81,107.73,25.81z M107.73,6.16c-4.14,0-7.51,3.37-7.51,7.51
					c0,4.14,3.37,7.51,7.51,7.51c4.14,0,7.51-3.37,7.51-7.51C115.23,9.53,111.87,6.16,107.73,6.16z"/>
			</g>
		</g>
	</g>
</g>
</svg>
